public/flags/DJ.svg

<svg fill="none" height="53" viewBox="0 0 65 53" width="65" xmlns="http://www.w3.org/2000/svg" xmlns:xlink="http://www.w3.org/1999/xlink"><mask id="a" height="43" maskUnits="userSpaceOnUse" width="59" x="6" y="3"><rect fill="#fff" height="42.5" rx="4.24286" width="59" x="6" y="3"/></mask><rect fill="#fff" height="42.5" rx="4.24286" width="59" x="6" y="3"/><g clip-rule="evenodd" fill-rule="evenodd" mask="url(#a)"><path d="m6 45.5h59v-22.6667h-59z" fill="#1dc837"/><path d="m6 22.8333h59v-19.8333h-59z" fill="#82c5f5"/><path d="m6 3 28.0952 21.25-28.0952 21.25z" fill="#fff"/><path d="m15.8334 27.0125-4.1285 2.968 1.5233-4.8769-4.07486-3.0425 5.06996-.046 1.6101-4.8484 1.6101 4.8484 5.0699.046-4.0748 3.0425 1.5233 4.8769z" fill="#e21c21"/></g></svg>

<svg width="65" height="53" viewBox="0 0 65 53" fill="none" xmlns="http://www.w3.org/2000/svg">
<rect x="6" y="3" width="59" height="42.5" rx="4.24286" fill="white"/>
<mask id="mask0" mask-type="alpha" maskUnits="userSpaceOnUse" x="6" y="3" width="59" height="43">
<rect x="6" y="3" width="59" height="42.5" rx="4.24286" fill="white"/>
</mask>
<g mask="url(#mask0)">
<path fill-rule="evenodd" clip-rule="evenodd" d="M6 45.5H65V22.8333H6V45.5Z" fill="#1DC837"/>
<path fill-rule="evenodd" clip-rule="evenodd" d="M6 22.8333H65V3H6V22.8333Z" fill="#82C5F5"/>
<path fill-rule="evenodd" clip-rule="evenodd" d="M6 3L34.0952 24.25L6 45.5V3Z" fill="white"/>
<path fill-rule="evenodd" clip-rule="evenodd" d="M15.8334 27.0125L11.7049 29.9805L13.2282 25.1036L9.15334 22.0611L14.2233 22.0151L15.8334 17.1667L17.4435 22.0151L22.5134 22.0611L18.4386 25.1036L19.9619 29.9805L15.8334 27.0125Z" fill="#E21C21"/>
</g>
</svg>
